X: 198
P: Longways for as many as will
M: C|
L: 1/8
K: Bb
d2 (cB) c2 (BA) | B2 (cB) A2 (GF) |\
(Bc) d2 (ed) (cB) | f6 |]
f2 |\
c4 c3d | e4 d4 |\
d2 d2 (cB) (AG) | d6 cd |\
e2 (dc) d2 (cB) | f2c2 F2c2 |\
f2 (ed) (ed) (cB) | B6 |]

